Origami/64x64/apps/multimedia-player.svg

<svg width="64" height="64" version="1" xmlns="http://www.w3.org/2000/svg">
 <rect transform="matrix(0,-1,-1,0,0,0)" x="-61" y="-54" width="56" height="44" rx="3" ry="3" style="opacity:.2"/>
 <rect transform="matrix(0,-1,-1,0,0,0)" x="-60" y="-54" width="56" height="44" rx="3" ry="3" style="fill:#8e8e8e"/>
 <rect x="18" y="14" width="28" height="16" rx="0" ry="0" style="opacity:.5"/>
 <path d="m24 37v16l16-8" style="opacity:.2"/>
 <path d="m24 36v16l16-8" style="fill:#e4e4e4"/>
 <path d="m13 4c-1.662 0-3 1.338-3 3v1c0-1.662 1.338-3 3-3h38c1.66 0 3 1.338 3 3v-1c0-1.662-1.34-3-3-3z" style="fill:#ffffff;opacity:.2"/>
</svg>

<svg xmlns="http://www.w3.org/2000/svg" width="64" height="64" version="1">
 <rect style="opacity:0.2" width="56" height="44" x="-61" y="-54" rx="3" ry="3" transform="matrix(0,-1,-1,0,0,0)"/>
 <rect style="fill:#8e8e8e" width="56" height="44" x="-60" y="-54" rx="3" ry="3" transform="matrix(0,-1,-1,0,0,0)"/>
 <rect style="opacity:0.5" width="28" height="16" x="18" y="14" rx="0" ry="0"/>
 <path style="opacity:0.2" d="M 24,37 V 53 L 40,45"/>
 <path style="fill:#cccccc" d="M 24,36 V 52 L 40,44"/>
 <path style="opacity:0.2;fill:#ffffff" d="M 13,4 C 11.338,4 10,5.338 10,7 V 8 C 10,6.338 11.338,5 13,5 H 51 C 52.66,5 54,6.338 54,8 V 7 C 54,5.338 52.66,4 51,4 Z"/>
</svg>
